X:37
T:Cotillon
R:Cotillon
C:anonyme
H:
N:2, p 2
B:
O:France
A:
Z:<anamnese@laposte.net> -- http://anamnese.fr.st
M:2
L:1/4
Q:1/4=120
K:C
cc | gf/e/fg | !!edf/e/f/e/ | dcd!!B | c2 :|| cB/c/ |
dGc B/c/ | !!d2 f/e/d/c/ | B/A/B/c/ dd | G2 cc | gf/e/f g |
!!edf/e/f/e/ | !!dcd!!B | c2 |]
